X:340
T: Eng tirgeiesch Freiesch (78b), S. 216
N: T0229
O: Luxemburg
S: Singendes Volk, Esch-Alzette 1937 posth.]
N: Lullingen, hhh Franz Feyder, 1890,
N: mitgeteilt: hhh Heinrich Godefroid (Lehrer)
R: Liebeslieder]
M: 6/8
L: 1/16
K: G
D2 | GGG2G2B2A2G2 | A8z2
D2 | AAA2A2c2B2A2 | B8z2
d2 | ddd2d2e2d2
c2 | B2A2B2d2c2B2 | A4z2d6 | B8z2

@@@ Tune index: 8394
